public/avatar/body/74.svg

<svg xmlns:xlink="http://www.w3.org/1999/xlink" height="82" width="84.85" xmlns="http://www.w3.org/2000/svg"><g transform="translate(37.4 42.25)"><use height="38" transform="translate(-11.95 -17.45)" width="32.05" xlink:href="#a"/><use height="38.95" transform="translate(-12.45 -17.95)" width="33.05" xlink:href="#b"/><use height="24.15" transform="translate(-16.15 -2)" width="40.25" xlink:href="#c"/></g><defs><path d="M27.35 7.4q2.15 4.15 3.55 8.75 1.45 4.7 1.15 9.5-.35 4.95-4.2 8.1-3.8 3.2-8.75 4.05l-2.6.2q-3.6 0-7.05-1.15-4.65-1.6-7.1-5.5Q-.2 27.4.05 23q.2-4.4 2-9.3Q3.85 8.75 7 5.05 10.1 1.3 14.7.1l1.8-.1q1.9.05 3.7.8 4.75 2.05 7.15 6.6" fill="#fff" fill-rule="evenodd" transform="translate(-.05)" id="d"/><path d="M27.35 7.4Q24.95 2.85 20.2.8 17.55-.3 14.7.1 10.1 1.3 7 5.05q-3.15 3.7-4.95 8.65-1.8 4.9-2 9.3-.25 4.4 2.3 8.35 2.45 3.9 7.1 5.5 4.65 1.55 9.65.95 4.95-.85 8.75-4.05 3.85-3.15 4.2-8.1.3-4.8-1.15-9.5-1.4-4.6-3.55-8.75Z" fill="none" stroke="#590d0d" stroke-linecap="round" stroke-linejoin="round" transform="translate(.45 .5)" id="e"/><use height="38" width="32.05" xlink:href="#d" id="a"/><use height="38.95" width="33.05" xlink:href="#e" id="b"/><g id="c"><path d="M-12.85 6.2h-.9q-2.15-.6-1-1.7-.95-.35-.9-1.5.1-2.5 1.9-1.75-.5-1.05.15-1.9l1.2-.05.85 1.3.15.05h.05q1.25.4 1.5 1.85v.4l.35-.15q1.25-.5 1.9 1.35v.05h.05q2.45-1.05 3.7 1.2 2-1.2 2.75.95 1.95-.55 2.85 1l.2.5.85-.4q.75-.3 1.25 0 .45.25.7 1 .15-.7.55-1.1.7-.8 2.15-.55l.45.15.6.6q.05-.45.25-.8.55-1.15 2.35-.95l.2.05.45.1.05-.3q.2-.65 1.15-.95l.8-.05q.55.1 1 .55-.05-.8.3-1.3l1-.7.85-.1.6.2-.2-1.05Q17.15.6 19.1.6h.05l.15.05-.25-1.6q1.9-1.4 2.65.7 1.3-.9 1.8.85.35 1.3-.85 1.8.95 2.3-1.75 2.45h-.1q-.65-.4-1.6-.35-.65 0-1.35.45-2.3 1.8-1.4 2.8h-.05v.05q-.7 2.5-3.15 1.7-.45 1.95-2.4.8-1.5 1.4-2.85.25l-.1-.05-.1.1q-1.8 1.6-2.5.1l-.15-.45-1.15.7-.55-.2-.05.15.05-.15.55.2-.6-.05.6.05.15.05.8-.3q.1 1.15-.25 2.05L4 14.6v.45l.8 1.7.7 1.7q.25.8-.25 1.65l-.1.15-.55 1.4h-.95l-.85-.25.6-1.15.05-.15.3-.9q.25-.95-.3-1.75L2.5 16q-.35-.55-.3-1.2 0-.95.4-1.8l.8-2.1-.3-.15-.45-.35-.3.35q-1.4 1.45-2.95-.1-.35.55-1.25.8l-.95-.25-1.05-1.2-.15-.35-.25.25Q-6 11.3-6.75 9l-.1-.35-.25.2q-1.3.7-1.75-.25Q-7.6 6.8-9.9 5q-.7-.45-1.35-.45-.95-.05-1.9 1.25l.3.4M19.8 1.15l-.5-.5.5.5" fill="#fff" fill-rule="evenodd" transform="translate(16.15 2)"/><path d="m20.9 4.9.3.15-1.35 1.9.05 4.95.05.4v4.6q-6.8 4.4-13.9 4.75H4.6l.55-1.4.1-.15q.5-.85.25-1.65l-.7-1.7-.8-1.7v-.45l.7-1.85q.35-.9.25-2.05h.35q.7 1.5 2.5-.1l.2-.05q1.35 1.15 2.85-.25 1.95 1.15 2.4-.8 2.45.8 3.15-1.7l.05-.05q-.9-1 1.4-2.8.7-.45 1.35-.45.95-.05 1.6.35h-.05l.15.05M2.8 21.4q-7.4.1-13.9-2.8V8.5l-1.75-2.3-.3-.4q.95-1.3 1.9-1.25.65 0 1.35.45 2.3 1.8 1.05 3.6.45.95 1.75.25l.25-.2.1.35q.75 2.3 2.5.9l.25-.25.15.35 1.05 1.2.95.25q.9-.25 1.25-.8 1.55 1.55 2.95.1l.3-.35.45.35.3.15-.8 2.1q-.4.85-.4 1.8-.05.65.3 1.2l.95 1.45q.55.8.3 1.75l-.3.9-.05.15-.6 1.15m13.6-9.6 3.45-4.85-3.45 4.85m-24.35.9-3.15-4.2 3.15 4.2" fill="#c00" fill-rule="evenodd" transform="translate(16.15 2)"/><path d="M-12.85 6.2h-.9q-2.15-.6-1-1.7-.95-.35-.9-1.5.1-2.5 1.9-1.75-.5-1.05.15-1.9l1.2-.05.85 1.3.15.05h.05q1.25.4 1.5 1.85v.4l.35-.15q1.25-.5 1.9 1.35v.05h.05q2.45-1.05 3.7 1.2 2-1.2 2.75.95 1.95-.55 2.85 1l.2.5.85-.4q.75-.3 1.25 0 .45.25.7 1 .15-.7.55-1.1.7-.8 2.15-.55l.45.15.6.6q.05-.45.25-.8.55-1.15 2.35-.95l.2.05.45.1.05-.3q.2-.65 1.15-.95l.8-.05q.55.1 1 .55-.05-.8.3-1.3l1-.7.85-.1.6.2-.2-1.05Q17.15.6 19.1.6h.05l.15.05-.25-1.6q1.9-1.4 2.65.7 1.3-.9 1.8.85.35 1.3-.85 1.8.95 2.3-1.75 2.45h-.1l.1.05-.15-.05h.05q-.65-.4-1.6-.35-.65 0-1.35.45-2.3 1.8-1.4 2.8h-.05v.05q-.7 2.5-3.15 1.7-.45 1.95-2.4.8-1.5 1.4-2.85.25l-.1-.05-.1.1q-1.8 1.6-2.5.1l-.15-.45-1.15.7-.55-.2-.05.15-.3-.15-.45-.35-.3.35q-1.4 1.45-2.95-.1-.35.55-1.25.8l-.95-.25-1.05-1.2-.15-.35-.25.25Q-6 11.3-6.75 9l-.1-.35-.25.2q-1.3.7-1.75-.25Q-7.6 6.8-9.9 5q-.7-.45-1.35-.45-.95-.05-1.9 1.25l.3.4M19.3.65l.5.5" fill="none" stroke="#6f88b0" stroke-linecap="round" stroke-linejoin="round" transform="translate(16.15 2)"/><path d="M37.05 6.85v.05m-17.5 6 .6.05" fill="none" stroke="#6f88b0" stroke-linecap="round" stroke-linejoin="round" stroke-width=".05"/><path d="m21.2 5.05-1.35 1.9.05 4.95.05.4v4.6q-6.8 4.4-13.9 4.75H4.6m-1.8-.25q-7.4.1-13.9-2.8v-6.65m0-.2V8.5l-1.75-2.3m32.7.75L16.4 11.8m-27.5-3.3 3.15 4.2" fill="none" stroke="#900" stroke-linecap="round" stroke-linejoin="round" transform="translate(16.15 2)"/><path d="m4 10.95.15.05.8-.3" fill="none" stroke="#384b38" stroke-linecap="round" stroke-linejoin="round" transform="translate(16.15 2)"/><path d="M4.6 21.65h-.95l-.85-.25.6-1.15.05-.15.3-.9q.25-.95-.3-1.75L2.5 16q-.35-.55-.3-1.2 0-.95.4-1.8l.8-2.1m1.55-.2q.1 1.15-.25 2.05L4 14.6v.45l.8 1.7.7 1.7q.25.8-.25 1.65l-.1.15-.55 1.4" fill="none" stroke="#666" stroke-linecap="round" stroke-linejoin="round" transform="translate(16.15 2)"/><path d="M-11.1 11.95v-.2" fill="none" stroke="#000" stroke-linecap="round" stroke-linejoin="round" transform="translate(16.15 2)"/><path d="M3.95 7.4H4" fill="none" stroke="#6f88b0" stroke-linecap="round" stroke-linejoin="round" transform="translate(16.15 2)"/></g></defs></svg>

<?xml version="1.0" encoding="UTF-8" standalone="no"?>
<svg xmlns:xlink="http://www.w3.org/1999/xlink" height="82.0px" width="84.85px" xmlns="http://www.w3.org/2000/svg">
  <g transform="matrix(1.0, 0.0, 0.0, 1.0, 37.4, 42.25)">
    <use height="38.0" transform="matrix(1.0, 0.0, 0.0, 1.0, -11.95, -17.45)" width="32.05" xlink:href="#sprite0"/>
    <use height="38.95" transform="matrix(1.0, 0.0, 0.0, 1.0, -12.45, -17.95)" width="33.05" xlink:href="#sprite1"/>
    <use height="24.15" transform="matrix(1.0, 0.0, 0.0, 1.0, -16.15, -2.0)" width="40.25" xlink:href="#shape2"/>
  </g>
  <defs>
    <g id="sprite0" transform="matrix(1.0, 0.0, 0.0, 1.0, -0.05, 0.0)">
      <use height="38.0" transform="matrix(1.0, 0.0, 0.0, 1.0, 0.05, 0.0)" width="32.05" xlink:href="#shape0"/>
    </g>
    <g id="shape0" transform="matrix(1.0, 0.0, 0.0, 1.0, -0.05, 0.0)">
      <path d="M27.35 7.4 Q29.5 11.55 30.9 16.15 32.35 20.85 32.05 25.65 31.7 30.6 27.85 33.75 24.05 36.95 19.1 37.8 L16.5 38.0 Q12.9 38.0 9.45 36.85 4.8 35.25 2.35 31.35 -0.2 27.4 0.05 23.0 0.25 18.6 2.05 13.7 3.85 8.75 7.0 5.05 10.1 1.3 14.7 0.1 L16.5 0.0 Q18.4 0.05 20.2 0.8 24.95 2.85 27.35 7.4" fill="#ffffff" fill-rule="evenodd" stroke="none"/>
    </g>
    <g id="sprite1" transform="matrix(1.0, 0.0, 0.0, 1.0, 0.45, 0.5)">
      <use height="38.95" transform="matrix(1.0, 0.0, 0.0, 1.0, -0.45, -0.5)" width="33.05" xlink:href="#shape1"/>
    </g>
    <g id="shape1" transform="matrix(1.0, 0.0, 0.0, 1.0, 0.45, 0.5)">
      <path d="M27.35 7.4 Q24.95 2.85 20.2 0.8 17.55 -0.3 14.7 0.1 10.1 1.3 7.0 5.05 3.85 8.75 2.05 13.7 0.25 18.6 0.05 23.0 -0.2 27.4 2.35 31.35 4.8 35.25 9.45 36.85 14.1 38.4 19.1 37.8 24.05 36.95 27.85 33.75 31.7 30.6 32.05 25.65 32.35 20.85 30.9 16.15 29.5 11.55 27.35 7.4 Z" fill="none" stroke="#590d0d" stroke-linecap="round" stroke-linejoin="round" stroke-width="1.0"/>
    </g>
    <g id="shape2" transform="matrix(1.0, 0.0, 0.0, 1.0, 16.15, 2.0)">
      <path d="M-12.85 6.2 L-13.75 6.2 Q-15.9 5.6 -14.75 4.5 -15.7 4.15 -15.65 3.0 -15.55 0.5 -13.75 1.25 -14.25 0.2 -13.6 -0.65 L-12.4 -0.7 -11.55 0.6 -11.4 0.65 -11.35 0.65 Q-10.1 1.05 -9.85 2.5 L-9.85 2.9 -9.5 2.75 Q-8.25 2.25 -7.6 4.1 L-7.6 4.15 -7.55 4.15 Q-5.1 3.1 -3.85 5.35 -1.85 4.15 -1.1 6.3 0.85 5.75 1.75 7.3 L1.95 7.8 2.8 7.4 Q3.55 7.1 4.05 7.4 4.5 7.65 4.75 8.4 4.9 7.7 5.3 7.3 6.0 6.5 7.45 6.75 L7.9 6.9 8.5 7.5 Q8.55 7.05 8.75 6.7 9.3 5.55 11.1 5.75 L11.3 5.8 11.75 5.9 11.8 5.6 Q12.0 4.95 12.95 4.65 L13.75 4.6 Q14.3 4.7 14.75 5.15 14.7 4.35 15.05 3.85 L16.05 3.15 16.9 3.05 17.5 3.25 17.3 2.2 Q17.15 0.6 19.1 0.6 L19.15 0.6 19.3 0.65 19.05 -0.95 Q20.95 -2.35 21.7 -0.25 23.0 -1.15 23.5 0.6 23.85 1.9 22.65 2.4 23.6 4.7 20.9 4.85 L20.8 4.85 Q20.15 4.45 19.2 4.5 18.55 4.5 17.85 4.95 15.55 6.75 16.45 7.75 L16.4 7.75 16.4 7.8 Q15.7 10.3 13.25 9.5 12.8 11.45 10.85 10.3 9.35 11.7 8.0 10.55 L7.9 10.5 7.8 10.6 Q6.0 12.2 5.3 10.7 L5.15 10.25 4.0 10.95 3.45 10.75 3.4 10.9 3.45 10.75 4.0 10.95 3.4 10.9 4.0 10.95 4.15 11.0 4.95 10.7 Q5.05 11.85 4.7 12.75 L4.0 14.6 4.0 15.05 4.8 16.75 5.5 18.45 Q5.75 19.25 5.25 20.1 L5.15 20.25 4.6 21.65 3.65 21.65 2.8 21.4 3.4 20.25 3.45 20.1 3.75 19.2 Q4.0 18.25 3.45 17.45 L2.5 16.0 Q2.15 15.45 2.2 14.8 2.2 13.85 2.6 13.0 L3.4 10.9 3.1 10.75 2.65 10.4 2.35 10.75 Q0.95 12.2 -0.6 10.65 -0.95 11.2 -1.85 11.45 L-2.8 11.2 -3.85 10.0 -4.0 9.65 -4.25 9.9 Q-6.0 11.3 -6.75 9.0 L-6.85 8.65 -7.1 8.85 Q-8.4 9.55 -8.85 8.6 -7.6 6.8 -9.9 5.0 -10.6 4.55 -11.25 4.55 -12.2 4.5 -13.15 5.8 L-12.85 6.2 M19.8 1.15 L19.3 0.65 19.8 1.15" fill="#ffffff" fill-rule="evenodd" stroke="none"/>
      <path d="M20.9 4.9 L21.2 5.05 19.85 6.95 19.9 11.9 19.95 12.3 19.95 16.9 Q13.15 21.3 6.05 21.65 L4.6 21.65 5.15 20.25 5.25 20.1 Q5.75 19.25 5.5 18.45 L4.8 16.75 4.0 15.05 4.0 14.6 4.7 12.75 Q5.05 11.85 4.95 10.7 L5.3 10.7 Q6.0 12.2 7.8 10.6 L8.0 10.55 Q9.35 11.7 10.85 10.3 12.8 11.45 13.25 9.5 15.7 10.3 16.4 7.8 L16.45 7.75 Q15.55 6.75 17.85 4.95 18.55 4.5 19.2 4.5 20.15 4.45 20.8 4.85 L20.75 4.85 20.9 4.9 M2.8 21.4 Q-4.6 21.5 -11.1 18.6 L-11.1 11.95 -11.1 11.75 -11.1 8.5 -12.85 6.2 -13.15 5.8 Q-12.2 4.5 -11.25 4.55 -10.6 4.55 -9.9 5.0 -7.6 6.8 -8.85 8.6 -8.4 9.55 -7.1 8.85 L-6.85 8.65 -6.75 9.0 Q-6.0 11.3 -4.25 9.9 L-4.0 9.65 -3.85 10.0 -2.8 11.2 -1.85 11.45 Q-0.95 11.2 -0.6 10.65 0.95 12.2 2.35 10.75 L2.65 10.4 3.1 10.75 3.4 10.9 2.6 13.0 Q2.2 13.85 2.2 14.8 2.15 15.45 2.5 16.0 L3.45 17.45 Q4.0 18.25 3.75 19.2 L3.45 20.1 3.4 20.25 2.8 21.4 M16.4 11.8 L19.85 6.95 16.4 11.8 M-7.95 12.7 L-11.1 8.5 -7.95 12.7" fill="#cc0000" fill-rule="evenodd" stroke="none"/>
      <path d="M-12.85 6.2 L-13.75 6.2 Q-15.9 5.6 -14.75 4.5 -15.7 4.15 -15.65 3.0 -15.55 0.5 -13.75 1.25 -14.25 0.2 -13.6 -0.65 L-12.4 -0.7 -11.55 0.6 -11.4 0.65 -11.35 0.65 Q-10.1 1.05 -9.85 2.5 L-9.85 2.9 -9.5 2.75 Q-8.25 2.25 -7.6 4.1 L-7.6 4.15 -7.55 4.15 Q-5.1 3.1 -3.85 5.35 -1.85 4.15 -1.1 6.3 0.85 5.75 1.75 7.3 L1.95 7.8 2.8 7.4 Q3.55 7.1 4.05 7.4 4.5 7.65 4.75 8.4 4.9 7.7 5.3 7.3 6.0 6.5 7.45 6.75 L7.9 6.9 8.5 7.5 Q8.55 7.05 8.75 6.7 9.3 5.55 11.1 5.75 L11.3 5.8 11.75 5.9 11.8 5.6 Q12.0 4.95 12.95 4.65 L13.75 4.6 Q14.3 4.7 14.75 5.15 14.7 4.35 15.05 3.85 L16.05 3.15 16.9 3.05 17.5 3.25 17.3 2.2 Q17.15 0.6 19.1 0.6 L19.15 0.6 19.3 0.65 19.05 -0.95 Q20.95 -2.35 21.7 -0.25 23.0 -1.15 23.5 0.6 23.85 1.9 22.65 2.4 23.6 4.7 20.9 4.85 L20.8 4.85 20.9 4.9 20.75 4.85 20.8 4.85 Q20.15 4.45 19.2 4.5 18.55 4.5 17.85 4.95 15.55 6.75 16.45 7.75 L16.4 7.75 16.4 7.8 Q15.7 10.3 13.25 9.5 12.8 11.45 10.85 10.3 9.35 11.7 8.0 10.55 L7.9 10.5 7.8 10.6 Q6.0 12.2 5.3 10.7 L5.15 10.25 4.0 10.95 3.45 10.75 3.4 10.9 3.1 10.75 2.65 10.4 2.35 10.75 Q0.95 12.2 -0.6 10.65 -0.95 11.2 -1.85 11.45 L-2.8 11.2 -3.85 10.0 -4.0 9.65 -4.25 9.9 Q-6.0 11.3 -6.75 9.0 L-6.85 8.65 -7.1 8.85 Q-8.4 9.55 -8.85 8.6 -7.6 6.8 -9.9 5.0 -10.6 4.55 -11.25 4.55 -12.2 4.5 -13.15 5.8 L-12.85 6.2 M19.3 0.65 L19.8 1.15" fill="none" stroke="#6f88b0" stroke-linecap="round" stroke-linejoin="round" stroke-width="1.0"/>
      <path d="M20.9 4.85 L20.9 4.9 M3.4 10.9 L4.0 10.95" fill="none" stroke="#6f88b0" stroke-linecap="round" stroke-linejoin="round" stroke-width="0.05"/>
      <path d="M21.2 5.05 L19.85 6.95 19.9 11.9 19.95 12.3 19.95 16.9 Q13.15 21.3 6.05 21.65 L4.6 21.65 M2.8 21.4 Q-4.6 21.5 -11.1 18.6 L-11.1 11.95 M-11.1 11.75 L-11.1 8.5 -12.85 6.2 M19.85 6.95 L16.4 11.8 M-11.1 8.5 L-7.95 12.7" fill="none" stroke="#990000" stroke-linecap="round" stroke-linejoin="round" stroke-width="1.0"/>
      <path d="M4.0 10.95 L4.15 11.0 4.95 10.7" fill="none" stroke="#384b38" stroke-linecap="round" stroke-linejoin="round" stroke-width="1.0"/>
      <path d="M4.6 21.65 L3.65 21.65 2.8 21.4 3.4 20.25 3.45 20.1 3.75 19.2 Q4.0 18.25 3.45 17.45 L2.5 16.0 Q2.15 15.45 2.2 14.8 2.2 13.85 2.6 13.0 L3.4 10.9 M4.95 10.7 Q5.05 11.85 4.7 12.75 L4.0 14.6 4.0 15.05 4.8 16.75 5.5 18.45 Q5.75 19.25 5.25 20.1 L5.15 20.25 4.6 21.65" fill="none" stroke="#666666" stroke-linecap="round" stroke-linejoin="round" stroke-width="1.0"/>
      <path d="M-11.1 11.95 L-11.1 11.75" fill="none" stroke="#000000" stroke-linecap="round" stroke-linejoin="round" stroke-width="1.0"/>
      <path d="M3.95 7.4 L4.0 7.4" fill="none" stroke="#6f88b0" stroke-linecap="round" stroke-linejoin="round" stroke-width="1.0"/>
    </g>
  </defs>
</svg>
